X:519
T:Spring Fling!
M:6/8
L:1/8
C:Adapted from Vivaldi's Spring
K:G
G|"G"B2B BAG|d3-ddc|B2B BAG|d3-ddc|
Bcd "Am"c2"G"B|"D"A2F D2G|"G"B2B BAG|d3-ddc|B2B BAG|
d3-ddc|Bcd "Am"c2"G"B|"D"A3 z2 B|"G"dcB c2d|
"C".e2"G"d-d2G|dcB c2d|"C".e2"G"d-d2G|"C".e2"G"d-d2c|BAG "D"A2F|
"G"G3 z2G|dcB c2d|"C".e2"G"d-d2G|dcB c2d|
"C".e2"G"d-d2G|"C".e2"G"d-d2c|BAG "D"A2F|"G"G3-G2 z||

%%scale 0.8
%%newpage

